X: 162
T: Elmer Briad's
T: Jig, D
C: Pipe Major Hughie Briand
L: 1/16
M: 6/8
K: D
|: A2A2A2 f2e2d2| A6 f6| B2B2B2 g2f2g2| B6 e4d2| c2A2A2 g2f2e2| A6 c4B2| A2c2e2 g2f2e2| [1 f6 f6:| [2 d6 d6|] 
|: A2A2A2 f2e2d2| A2A2A2 f2e2d2| B2B2B2 g2f2g2| B6 e4d2| c2A2A2 g2f2e2| A6 c4B2| A2c2e2 g2f2e2| [1 f6 f6:| [2 d6 d6|] 
|: A2d2f2 a2f2d2| A2d2f2 a2f2d2| G2B2d2 g2f2g2| B6 e4d2| c2A2A2 g2f2e2| A6 c4B2| A2c2e2 g2f2e2| [1 f6 f6:| [2 d6 d4|] 
|: g2| a4a2 a2f2d2| A6 f4g2| a4a2 a2g2f2| B6 g4f2| g4g2 g2f2e2| A6 c4B2| A2c2e2 g2f2e2| [1 f6 f4:| [2 d6d6|] 
D: Buddy MacMaster, Glencoe Hall, BM-91
